!!!!SEGMENT: pl-wn--mus-iii-80-558--001-002_wieniawski-henryk--concerto-i-op-14-preghiera-larghetto.krn
!!!cenid: 18xx:3830
!!!COM: Wieniawski, Henryk
!!!COM-rismID: pe137176
!!!CDT: 1835/07/10-1880/03/31
!!!CNT:
!!!OPR: Concerto I op. 14
!!!OTL: Preghiera. Larghetto
!!!OMV: 002
!!!PDT:
!!!AGN:
!!!SMS-siglum: PL-Wn
!!!SMS-shelfmark: Mus.III.80.558
!!!SMS-shelfwork: 001-002 M
!!!SMS-variant: Partytura: PL-Wn Mus.III.80.558:20-21
!!!SMS-altvar: VIOLON.: PL-Wn Mus.III.80.558:44
!!!NIFC-rismSourceID:
!!!NIFC-islandoraID:
!!!URL-pdf-islandora:
!!!URL-scan: https://polona.pl/item/concerto-i-op-14,NzIyMDM2MDU/3/#info:metadata @EN{Scan on Polona} @PL{Skany w portalu Polona}
!!!ONB-nifc: UWAGA: części Koncertu: 1. Allegro moderato, 2. Preghiera. Larghetto (od skanu 19), 3. Rondo (od skanu 21)
!!!OMD: Larghetto.
!!!OMD-mod: Larghetto
!!!AIN: 1 piano 1 violn
!!!key: A
**kern	**kern	**dynam	**kern	**dynam
*part2	*part2	*part2	*part1	*part1
*staff3	*staff2	*	*staff1	*
*I"[Piano]	*I"[Piano]	*	*I"[Violon]	*
*I'	*I'	*	*I'	*
*Ipiano	*Ipiano	*	*Ivioln	*
*ICklav	*ICklav	*	*ICstr	*
*IGacmp	*IGacmp	*	*IGsolo	*
*mI"Pianoforte	*mI"Pianoforte	*	*mI"Violino	*
*mI'pf	*mI'pf	*	*mI'vl	*
*clefF4	*clefG2	*	*clefG2	*
*k[f#c#g#]	*k[f#c#g#]	*	*k[f#c#g#]	*
*A:	*A:	*	*A:	*
*M4/4	*M4/4	*	*M4/4	*
*met(c)	*met(c)	*	*met(c)	*
*mmet(c)	*mmet(c)	*	*mmet(c)	*
*	*	*	*scale:75%	*
=1	=1	=1	=1	=1
*	*clefF4	*	*	*
!	!	!LO:DY:rj	!	!
2E 2AA/	(2c# 2A\	p <	1r	.
2F# 2FF#/	2c# [>2A\	.	.	.
=2	=2	=2	=2	=2
*	*^	*	*	*
4BB/	4d/	2A] 2Fn\	.	1r	.
4D\	8.c#/L	.	.	.	.
.	16B/Jk	.	[	.	.
4E\	2B 2G#/)	2E</	>]	.	.
4EE/	.	.	.	.	.
=3	=3	=3	=3	=3	=3
*^	*	*	*	*	*
[1C#	2EE#X\	(2c#/	4G#\	<	1r	.
.	.	.	8.c#\L	.	.	.
.	.	.	16B\Jk	.	.	.
.	2FF#\	4c#/	2A\	.	.	.
.	.	4d#X/	.	.	.	.
=4	=4	=4	=4	=4	=4	=4
4C#/]	2GG#\	4e/	4G#\	[	1r	.
4BB#X/	.	8.d#X/L	4G# 4F#\	.	.	.
.	.	16c#/Jk	.	.	.	.
2C# 2CC#/	2ryy	2c#/)	2G# 2E\	>]	.	.
*v	*v	*	*	*	*	*
=5	=5	=5	=5	=5	=5
8AA/L	([2c#/	2A 2E\	.	1r	.
8AA/	.	.	.	.	.
8GG#/	.	.	.	.	.
8GGn/J	.	.	.	.	.
2FF#/	8c#/L]	2A#X 2F#\	<[	.	.
.	(8f#/)	.	.	.	.
.	8e#X/	.	.	.	.
.	8en/J	.	.	.	.
=6	=6	=6	=6	=6	=6
2F# 2BB\	2d#X/	8An\L	>	1r	.
.	.	8c#\	.	.	.
.	.	8B\	.	.	.
.	.	[8A\J	.	.	.
4E\	4e/	8A\L]	]	.	.
.	.	(>8e 8G#\)	.	.	.
4EE/	8f#/L	8d#X 8F#\	<	.	.
.	8g#/J	8dnJ 8E\	.	.	.
=7	=7	=7	=7	=7	=7
*^	*	*	*	*	*
2E/	4AA\	4a/	2c#\	[	1r	.
.	4AA#X\	4.gn/	.	.	.	.
4D 4BB\	2ryy	.	4d\	.	.	.
.	.	8f#/L	.	.	.	.
8EL 8C#\	.	8e/	8c#\L	.	.	.
8F#J 8D\	.	8d/J	8B\J	.	.	.
*v	*v	*	*	*	*	*
!!LO:LB:g=original
=8	=8	=8	=8	=8	=8
4E\	4c#/	4.A\	>	1r	.
4D 4EE/	8.B/L	.	.	.	.
.	.	8G#\	.	.	.
.	16A/Jk	.	.	.	.
4C# 4AA/	4A/)	4A\	]	.	.
4r	4r	4ryy	.	.	.
*	*clefG2	*	*	*	*
*	*v	*v	*	*	*
=9	=9	=9	=9	=9
2r	(>2b 2g# 2e/	p <	1r	.
[2c#\	2cc# 2g# 2e/	[[	.	.
=10	=10	=10	=10	=10
*^	*^	*	*	*
4c#/]	2F#\	4ee/	2a\	>	1r	.
2d#X/	.	8.dd#X/L	.	.	.	.
.	.	16cc#/Jk	.	.	.	.
.	2G#\	4cc#/	2g#\	.	.	.
8g#>\L	.	4b#X/	.	.	.	.
8f#>\J	.	.	.	]]	.	.
*v	*v	*	*	*	*	*
=11	=11	=11	=11	=11	=11
2c#\	(>2ee 2cc# 2g# 2e/)	2ryy	<	1r	.
4c#\	2a#X/	4.ee 4.gn\	.	.	.
4cn\	.	.	.	.	.
.	.	8ff# 8f#\	.	.	.
=12	=12	=12	=12	=12	=12
*^	*	*	*	*	*
4e/	2B\	4.gg#/	8b\L	[	1r	.
.	.	.	8g#\J	.	.	.
4d#X/	.	.	4an\	.	.	.
.	.	8ff#/	.	.	.	.
4dn/	2E\	4ff#/	2g#\	>	.	.
8c#/L	.	8ee/L	.	.	.	.
8B/J	.	8dd/J	.	]]	.	.
*v	*v	*v	*	*	*	*
=13	=13	=13	=13	=13
2E 2AA/	(>2cc# 2a 2c#/)	p	1r	.
2F# 2FF#/	2cc# 2a#X 2c#/	.	.	.
=14	=14	=14	=14	=14
*^	*^	*	*	*
2F# 2BB\	2ryy	8an/L	2dd#X 2d#X\	>	1r	.
.	.	8cc#/	.	.	.	.
.	.	8b/	.	.	.	.
.	.	8a/J	.	.	.	.
8E/L	4.E\	8a/L	4ee 4e\	.	.	.
8e/	.	(8g#/)	.	]	.	.
8d#X/	.	8f#/	8ff#L 8f#\	<	.	.
8dn/J	8E#X\	8b/J	8gg#J 8g#\	[[	.	.
*v	*v	*	*	*	*	*
*	*v	*v	*	*	*
!!LO:LB:g=original
=15	=15	=15	=15	=15
4f#> 4F#\	4.aa//	>	1r	.
4e#X>: 4B: 4C#:\	.	.	.	.
.	8gg#//	.	.	.
4f#> 4A 4D\	4.ff#//	.	.	.
4c#>: 4Gn: 4AA#X:\	.	.	.	.
.	8ee//	.	.	.
=16	=16	=16	=16	=16
*^	*^	*	*	*
2F#/	4BB\	(4dd/)	2d\	]	1r	.
.	8C#\L	8cc#/L	.	<	.	.
.	8D\J	8b/J	.	.	.	.
4F#/	2D#X\	4a/	2cn\	.	.	.
8G#/L	.	8g#/L	.	.	.	.
8A/J	.	8f#/J	.	.	.	.
*	*	*v	*v	*	*	*
=17	=17	=17	=17	=17	=17
2A/	1E	2e 2c#X/	[	1r	.
2A/	.	2fn 2cn/	.	.	.
=18	=18	=18	=18	=18	=18
2A/	1E	2f#X 2d 2B/	>	1r	.
2E/	.	2g# 2e 2d 2B/	.	.	.
=19	=19	=19	=19	=19	=19
*	*	*^	*	*	*
!!LO:TX:a:B:t=M
!	!	!	!	!	!LO:MO:mod=!LO&colon;TX&colon;a&colon;i&colon;t=grave	!
!	!	!	!	!	!LO:TX:b:i:t=grave	!
!	!	!	!LO:MO:mod=(1c# 1A	!	!LO:TX:a:B:t=M:rj:mod=	!
2E/	1AA	4a 4e/)	1c# 1A	]	2.a/	p <
.	.	4rb	.	.	.	.
!	!	!LO:MO:mod=2rb	!	!	!	!
2E#X/	.	(2rb	.	.	.	.
.	.	.	.	.	4c#/	[[
*v	*v	*	*	*	*	*
*	*v	*v	*	*	*
=20	=20	=20	=20	=20
1A 1F# 1AA	1d 1B	.	[2f#/	>
.	.	.	8f#/L]	]
.	.	.	(8e/	<
.	.	.	8d/	.
.	.	.	8c#/J)	.
=21	=21	=21	=21	=21
1G# 1E 1AA	1d 1B	.	(8B/L	.
.	.	.	8c#/)	.
.	.	.	8d/	.
.	.	.	8e/J	.
.	.	.	(8f#/L	.
.	.	.	8g#/)	.
.	.	.	8a/	.
.	.	.	8b/J	[[
=22	=22	=22	=22	=22
*^	*	*	*	*
1E	2.AA\	(>1c# 1A)	.	2cc#\	>
.	.	.	.	2a/	]]
.	4GG#\	.	.	.	.
*v	*v	*	*	*	*
=23	=23	=23	=23	=23
1E 1GGn	1c# 1A	.	2.a/	mp <
.	.	.	4c#/	[[
!!LO:LB:g=original
=24	=24	=24	=24	=24
*	*^	*	*	*
1F# 1FF#	2c#/	1A#X	.	[2f#/	>
.	4.f#/	.	<	8f#/L]	]
.	.	.	.	(8e/	<
.	.	.	.	8d/	.
.	8e/	.	.	8c#/J)	.
=25	=25	=25	=25	=25	=25
*^	*	*	*	*	*
1F#	2BB\	2d/	1B	.	4B/	.
.	.	.	.	.	(2b\	.
.	2AA\	2d#X/	.	.	.	.
.	.	.	.	[[	4B/)	[[
*v	*v	*v	*	*	*	*
=26	=26	=26	=26	=26
2.E 2.GG#/	2.e 2.B/)	>]	[2.e/	>
4r	4r	.	8e/L]	.
.	.	.	8e'/J	] p
=27	=27	=27	=27	=27
*^	*	*	*	*^
2A 2C#/	8r	8r	sf	(4.e~/	<	<
.	8E\L	8e/L	.	.	.	.
.	8E\J	8e/J	.	.	.	.
.	8r	8r	.	8e'/)	.	.
2G# 2BB#X/	8r	8r	sf	(4.e~/	.	.
.	8E\L	8e/L	<	.	.	.
.	8E\J	8e/J	.	.	.	.
.	8r	8r	.	8e'/)	[[	.
*	*	*	*	*	*v	*v
=28	=28	=28	=28	=28	=28
2.A 2.C#/	8r	8r	sf	(4.e/	>
.	8E\L	8e/L	.	.	.
.	8E\	8e/	.	.	.
.	8E\J	8e/J	.	16g#/LL	.
.	.	.	.	16f#/JJ)	.
.	4E\	4e/	.	(4.e~/	.
4r	4ryy	4r	.	.	]
.	.	.	.	8e'/)	mf
=29	=29	=29	=29	=29	=29
*	*	*	*	*	*^
2A 2C#/	8r	8r	sf	(4.e~/	<	<
.	8E\L	8e/L	mf	.	.	.
.	8E\J	8e/J	.	.	.	.
.	8r	8r	.	8e'/)	.	.
2G# 2BB#X/	8r	8r	sf	(4.e~/	.	.
.	8E\L	8e/L	.	.	.	.
.	8E\J	8e/J	.	.	.	.
.	8r	8r	.	8e'/)	[[	.
*	*	*	*	*	*v	*v
=30	=30	=30	=30	=30	=30
2.A 2.C#/	8r	8r	sf	(4.e/	>
.	8E\L	8e/L	.	.	.
.	8E\	8e/	.	.	.
.	8E\J	8e/J	.	16g#/LL	.
.	.	.	.	16f#/JJ)	.
.	4E\	4e/	.	(4.e~/	.
4r	4ryy	4r	.	.	]
.	.	.	.	8e'/)	f
*v	*v	*	*	*	*
=31	=31	=31	=31	=31
[1Cn [1FFn	(2.A/	f	2.fn/	<
.	4A/	.	4ccn\	.
!!LO:PB:g=original
=32	=32	=32	=32	=32
4Cn] 4FFn/]	4cn/	.	4a/	.
!LO:SIC:s=4rC	!	!	!	!
4r	4fn/	.	4fn/	.
!LO:SIC:s=4rC	!	!	!	!
4r	4a/	.	4cn/	.
*clefG2	*	*	*	*
4a 4fn/	4ccn\	.	4d#X/	[[
=33	=33	=33	=33	=33
*^	*	*	*	*
2a 2e/	2ryy	2ee 2cc#X\)	.	1e	>]
!	!	!	!LO:HP:t=dim.	!	!
4a/	2e\	(2ee 2dd 2b\	>	.	.
4g#/	.	.	.	.	.
=34	=34	=34	=34	=34	=34
!!LO:TX:a:B:t=N
!	!	!	!	!LO:TX:a:B:t=N:rj:mod=	!
4a 4e/	1A	(32ccc#LLL 32ee 32cc#\)	p	(2.a/	p <
.	.	32ee\	.	.	.
.	.	32ccc# 32aa\	.	.	.
.	.	32ee\	.	.	.
.	.	32ccc# 32aa\	.	.	.
.	.	32ee\	.	.	.
.	.	32ccc# 32aa\	.	.	.
.	.	32ee\JJJ	.	.	.
*	*	*tremolo	*	*	*
4r	.	32ccc#LLL 32aa\	.	.	.
.	.	32ee\	.	.	.
.	.	32ccc# 32aa\	.	.	.
.	.	32ee\	.	.	.
.	.	32ccc# 32aa\	.	.	.
.	.	32ee\	.	.	.
.	.	32ccc# 32aa\	.	.	.
.	.	32ee\JJJ	.	.	.
2r	.	32ccc#LLL 32aa\	.	.	.
.	.	32ee#\	.	.	.
.	.	32ccc# 32aa\	.	.	.
.	.	32ee#\	.	.	.
.	.	32ccc# 32aa\	.	.	.
.	.	32ee#\	.	.	.
.	.	32ccc# 32aa\	.	.	.
.	.	32ee#\	.	.	.
.	.	32ccc# 32aa\	.	4c#/)	[[
.	.	32ee#\	.	.	.
.	.	32ccc# 32aa\	.	.	.
.	.	32ee#\	.	.	.
.	.	32ccc# 32aa\	.	.	.
.	.	32ee#\	.	.	.
.	.	32ccc# 32aa\	.	.	.
.	.	32ee#X\JJJ	.	.	.
*v	*v	*	*	*	*
=35	=35	=35	=35	=35
1A	32dddLLL 32bb 32aa\	.	[2f#/	>
.	32ff#\	.	.	.
.	32ddd 32bb 32aa\	.	.	.
.	32ff#\	.	.	.
.	32ddd 32bb 32aa\	.	.	.
.	32ff#\	.	.	.
.	32ddd 32bb 32aa\	.	.	.
.	32ff#\	.	.	.
.	32ddd 32bb 32aa\	.	.	.
.	32ff#\	.	.	.
.	32ddd 32bb 32aa\	.	.	.
.	32ff#\	.	.	.
.	32ddd 32bb 32aa\	.	.	.
.	32ff#\	.	.	.
.	32ddd 32bb 32aa\	.	.	.
.	32ff#\JJJ	.	.	.
.	32dddLLL 32bb 32aa\	.	8f#/L]	]
.	32ff#\	.	.	.
.	32ddd 32bb 32aa\	.	.	.
.	32ff#\	.	.	.
.	32ddd 32bb 32aa\	.	(8e/	<
.	32ff#\	.	.	.
.	32ddd 32bb 32aa\	.	.	.
.	32ff#\	.	.	.
.	32ddd 32bb 32aa\	.	8d/	.
.	32ff#\	.	.	.
.	32ddd 32bb 32aa\	.	.	.
.	32ff#\	.	.	.
.	32ddd 32bb 32aa\	.	8c#/J)	.
.	32ff#\	.	.	.
.	32ddd 32bb 32aa\	.	.	.
.	32ff#\JJJ	.	.	.
=36	=36	=36	=36	=36
1A	32dddLLL 32bb 32gg#\	.	(8B/L	.
.	32ee\	.	.	.
.	32ddd 32bb 32gg#\	.	.	.
.	32ee\	.	.	.
.	32ddd 32bb 32gg#\	.	8c#/	.
.	32ee\	.	.	.
.	32ddd 32bb 32gg#\	.	.	.
.	32ee\	.	.	.
.	32ddd 32bb 32gg#\	.	8d/	.
.	32ee\	.	.	.
.	32ddd 32bb 32gg#\	.	.	.
.	32ee\	.	.	.
.	32ddd 32bb 32gg#\	.	8e/J	.
.	32ee\	.	.	.
.	32ddd 32bb 32gg#\	.	.	.
.	32ee\JJJ	.	.	.
.	32dddLLL 32bb 32gg#\	.	8f#/L)	.
.	32ee\	.	.	.
.	32ddd 32bb 32gg#\	.	.	.
.	32ee\	.	.	.
.	32ddd 32bb 32gg#\	.	(8g#/	.
.	32ee\	.	.	.
.	32ddd 32bb 32gg#\	.	.	.
.	32ee\	.	.	.
.	32ddd 32bb 32gg#\	.	8a/	.
.	32ee\	.	.	.
.	32ddd 32bb 32gg#\	.	.	.
.	32ee\	.	.	.
.	32ddd 32bb 32gg#\	.	8b/J)	[[
.	32ee\	.	.	.
.	32ddd 32bb 32gg#\	.	.	.
.	32ee\JJJ	.	.	.
=37	=37	=37	=37	=37
2A/	32ccc#LLL 32aa\	.	2cc#\	>
.	32ee\	.	.	.
.	32ccc# 32aa\	.	.	.
.	32ee\	.	.	.
.	32ccc# 32aa\	.	.	.
.	32ee\	.	.	.
.	32ccc# 32aa\	.	.	.
.	32ee\	.	.	.
.	32ccc# 32aa\	.	.	.
.	32ee\	.	.	.
.	32ccc# 32aa\	.	.	.
.	32ee\	.	.	.
.	32ccc# 32aa\	.	.	.
.	32ee\	.	.	.
.	32ccc# 32aa\	.	.	.
.	32ee\JJJ)	.	.	.
4a/	(32ccc#LLL 32aa\	.	2a/	]]
.	32ee\	.	.	.
.	32ccc# 32aa\	.	.	.
.	32ee\	.	.	.
.	32ccc# 32aa\	.	.	.
.	32ee\	.	.	.
.	32ccc# 32aa\	.	.	.
.	32ee\	.	.	.
4g#/	32ccc# 32aa\	.	.	.
.	32ee\	.	.	.
.	32ccc# 32aa\	.	.	.
.	32ee\	.	.	.
.	32ccc# 32aa\	.	.	.
.	32ee\	.	.	.
.	32ccc# 32aa\	.	.	.
.	32ee\JJJ	.	.	.
=38	=38	=38	=38	=38
*tremolo	*	*	*	*
32gn\LLL	32ccc#\LLL	.	2.a/	mp <
32ee\	32aa\	.	.	.
32g\	32ccc#\	.	.	.
32ee\	32aa\	.	.	.
32g\	32ccc#\	.	.	.
32ee\	32aa\	.	.	.
32g\	32ccc#\	.	.	.
32ee\	32aa\	.	.	.
32g\	32ccc#\	.	.	.
32ee\	32aa\	.	.	.
32g\	32ccc#\	.	.	.
32ee\	32aa\	.	.	.
32g\	32ccc#\	.	.	.
32ee\	32aa\	.	.	.
32g\	32ccc#\	.	.	.
32ee\JJJ	32aa\JJJ	.	.	.
32g\LLL	32ccc#\LLL	.	.	.
32ee\	32aa\	.	.	.
32g\	32ccc#\	.	.	.
32ee\	32aa\	.	.	.
32g\	32ccc#\	.	.	.
32ee\	32aa\	.	.	.
32g\	32ccc#\	.	.	.
32ee\	32aa\	.	.	.
32g\	32ccc#\	.	4c#/	[[
32ee\	32aa\	.	.	.
32g\	32ccc#\	.	.	.
32ee\	32aa\	.	.	.
32g\	32ccc#\	.	.	.
32ee\	32aa\	.	.	.
32g\	32ccc#\	.	.	.
32ee\JJJ	32aa\JJJ	.	.	.
!!LO:LB:g=original
=39	=39	=39	=39	=39
32f#\LLL	32ccc#\LLL	.	[2f#/	>
32ee\	32aa#X\	.	.	.
32f#\	32ccc#\	.	.	.
32ee\	32aa#\	.	.	.
32f#\	32ccc#\	.	.	.
32ee\	32aa#\	.	.	.
32f#\	32ccc#\	.	.	.
32ee\	32aa#\	.	.	.
32f#\	32ccc#\	.	.	.
32ee\	32aa#\	.	.	.
32f#\	32ccc#\	.	.	.
32ee\	32aa#\	.	.	.
32f#\	32ccc#\	.	.	.
32ee\	32aa#\	.	.	.
32f#\	32ccc#\	.	.	.
32ee\JJJ	32aa#\JJJ	.	.	.
32f#\LLL	32fff#\LLL	.	8f#/L]	]
32ee\	32aa#\	.	.	.
32f#\	32fff#\	.	.	.
32ee\	32aa#\	.	.	.
32f#\	32fff#\	.	(8e/	<
32ee\	32aa#\	.	.	.
32f#\	32fff#\	.	.	.
32ee\	32aa#\	.	.	.
32f#\	32fff#\	.	8d/	.
32ee\	32aa#\	.	.	.
32f#\	32fff#\	.	.	.
32ee\	32aa#\	.	.	.
32f#\	32fff#\	.	8c#/J)	.
32ee\	32aa#\	.	.	.
32f#\	32fff#\	.	.	.
32ee\JJJ	32aa#\JJJ	.	.	.
=40	=40	=40	=40	=40
32b\LLL	32fff#\LLL	.	4B/	.
32dd\	32ddd\	.	.	.
32b\	32fff#\	.	.	.
32dd\	32ddd\	.	.	.
32b\	32fff#\	.	.	.
32dd\	32ddd\	.	.	.
32b\	32fff#\	.	.	.
32dd\	32ddd\	.	.	.
32b\	32fff#\	.	(2b\	.
32dd\	32ddd\	.	.	.
32b\	32fff#\	.	.	.
32dd\	32ddd\	.	.	.
32b\	32fff#\	.	.	.
32dd\	32ddd\	.	.	.
32b\	32fff#\	.	.	.
32dd\JJJ	32ddd\JJJ	.	.	.
32a\LLL	32fff#\LLL	.	.	.
!	!LO:SIC:v:s=32ddd#	!	!	!
32dd#X\	32ddd\	.	.	.
32a\	32fff#\	.	.	.
!	!LO:SIC:v:s=32ddd#	!	!	!
32dd#\	32ddd\	.	.	.
32a\	32fff#\	.	.	.
!	!LO:SIC:v:s=32ddd#	!	!	!
32dd#\	32ddd\	.	.	.
32a\	32fff#\	.	.	.
!	!LO:SIC:v:s=32ddd#	!	!	!
32dd#\	32ddd\	.	.	.
32a\	32fff#\	.	4B/)	[[
!	!LO:SIC:v:s=32ddd#	!	!	!
32dd#\	32ddd\	.	.	.
32a\	32fff#\	.	.	.
!	!LO:SIC:v:s=32ddd#	!	!	!
32dd#\	32ddd\	.	.	.
32a\	32fff#\	.	.	.
!	!LO:SIC:v:s=32ddd#	!	!	!
32dd#\	32ddd\	.	.	.
32a\	32fff#\	.	.	.
!	!LO:SIC:v:s=32ddd#XJJJ	!	!	!
32dd#X\JJJ	32ddd\JJJ	.	.	.
=41	=41	=41	=41	=41
32g#\LLL	32eee\LLL	>	[2.e/	>
32ee\	32bb\	.	.	.
32g#\	32eee\	.	.	.
32ee\	32bb\	.	.	.
32g#\	32eee\	.	.	.
32ee\	32bb\	.	.	.
32g#\	32eee\	.	.	.
32ee\JJJ	32bb\	.	.	.
32b\LLL	32eee\	.	.	.
32gg#\	32bb\	.	.	.
32b\	32eee\	.	.	.
32gg#\	32bb\	.	.	.
32b\	32eee\	.	.	.
32gg#\	32bb\	.	.	.
32b\	32eee\	.	.	.
32gg#\JJJ	32bb\	.	.	.
32ee\LLL	32eee\	.	.	.
32gg#\	32bb\	.	.	.
32ee\	32eee\	.	.	.
32gg#\	32bb\	.	.	.
32ee\	32eee\	.	.	.
32gg#\	32bb\	.	.	.
32ee\	32eee\	.	.	.
32gg#\JJJ	32bb\JJJ)	.	.	.
32dd\LLL	(32eee\LLL	] p	8e/L]	]
32ee\	32gg#\	.	.	.
32dd\	32eee\	.	.	.
32ee\	32gg#\	.	.	.
32dd\	32eee\	.	8e'/J	p
32ee\	32gg#\	.	.	.
32dd\	32eee\	.	.	.
32ee\JJJ	32gg#\JJJ	.	.	.
=42	=42	=42	=42	=42
32cc#\LLL	32eee\LLL	<	(4.e~/	<
32ee\	32aa\	.	.	.
32cc#\	32eee\	.	.	.
32ee\	32aa\	.	.	.
32cc#\	32eee\	.	.	.
32ee\	32aa\	.	.	.
32cc#\	32eee\	.	.	.
32ee\	32aa\	.	.	.
32cc#\	32eee\	.	.	.
32ee\	32aa\	.	.	.
32cc#\	32eee\	.	.	.
32ee\	32aa\	.	.	.
32cc#\	32eee\	.	8e'/)	.
32ee\	32aa\	.	.	.
32cc#\	32eee\	.	.	.
32ee\JJJ	32aa\JJJ	.	.	.
32b#X\LLL	32eee\LLL	.	(4.e~/	.
32ee\	32gg#\	.	.	.
32b#\	32eee\	.	.	.
32ee\	32gg#\	.	.	.
32b#\	32eee\	.	.	.
32ee\	32gg#\	.	.	.
32b#\	32eee\	.	.	.
32ee\	32gg#\	.	.	.
32b#\	32eee\	.	.	.
32ee\	32gg#\	.	.	.
32b#\	32eee\	.	.	.
32ee\	32gg#\	.	.	.
32b#\	32eee\	.	8e'/)	[[
32ee\	32gg#\	.	.	.
32b#\	32eee\	.	.	.
32ee\JJJ	32gg#\JJJ	.	.	.
=43	=43	=43	=43	=43
32cc#\LLL	32eee\LLL	.	(4.e/	>
32ee\	32aa\	.	.	.
32cc#\	32eee\	.	.	.
32ee\	32aa\	.	.	.
32cc#\	32eee\	.	.	.
32ee\	32aa\	.	.	.
32cc#\	32eee\	.	.	.
32ee\	32aa\	.	.	.
32cc#\	32eee\	.	.	.
32ee\	32aa\	.	.	.
32cc#\	32eee\	.	.	.
32ee\	32aa\	.	.	.
32cc#\	32eee\	.	16g#/LL	.
32ee\	32aa\	.	.	.
32cc#\	32eee\	.	16f#/JJ)	.
32ee\JJJ	32aa\JJJ)	.	.	.
32cc#\LLL	(32eee\LLL	.	(4.e~/	]
32ee\	32aa\	.	.	.
32cc#\	32eee\	.	.	.
32ee\	32aa\	.	.	.
32cc#\	32eee\	.	.	.
32ee\	32aa\	.	.	.
32cc#\	32eee\	.	.	.
32ee\	32aa\	.	.	.
32cc#\	32eee\	.	.	.
32ee\	32aa\	.	.	.
32cc#\	32eee\	.	.	.
32ee\	32aa\	.	.	.
32cc#\	32eee\	.	8e'/)	mf
32ee\	32aa\	.	.	.
32cc#\	32eee\	.	.	.
32ee\JJJ	32aa\JJJ	.	.	.
*Xtremolo	*	*	*	*
*clefF4	*	*	*	*
=44	=44	=44	=44	=44
2A\	32eeeLLL 32ccc#\	mf	(4.e~/	<
.	32aa 32ee\	.	.	.
.	32eee 32ccc#\	.	.	.
.	32aa 32ee\	.	.	.
.	32eee 32ccc#\	.	.	.
.	32aa 32ee\	.	.	.
.	32eee 32ccc#\	.	.	.
.	32aa 32ee\	.	.	.
.	32eee 32ccc#\	<	.	.
.	32aa 32ee\	.	.	.
.	32eee 32ccc#\	.	.	.
.	32aa 32ee\	.	.	.
.	32eee 32ccc#\	.	8e'/)	.
.	32aa 32ee\	.	.	.
.	32eee 32ccc#\	.	.	.
.	32aaJJJ 32ee\	.	.	.
2E\	32eeeLLL 32bb#X\	.	(4.e~/	.
.	32gg# 32ee\	.	.	.
.	32eee 32bb#\	.	.	.
.	32gg# 32ee\	.	.	.
.	32eee 32bb#\	.	.	.
.	32gg# 32ee\	.	.	.
.	32eee 32bb#\	.	.	.
.	32gg# 32ee\	.	.	.
.	32eee 32bb#\	.	.	.
.	32gg# 32ee\	.	.	.
.	32eee 32bb#\	.	.	.
.	32gg# 32ee\	.	.	.
.	32eee 32bb#\	.	8e'/)	[[
.	32gg# 32ee\	.	.	.
.	32eee 32bb#\	.	.	.
.	32gg#JJJ 32ee\	.	.	.
=45	=45	=45	=45	=45
1AA	32eeeLLL 32ccc#\	.	(4.e/	>
.	32aa 32ee\	.	.	.
.	32eee 32ccc#\	.	.	.
.	32aa 32ee\	.	.	.
.	32eee 32ccc#\	.	.	.
.	32aa 32ee\	.	.	.
.	32eee 32ccc#\	.	.	.
.	32aa 32ee\	.	.	.
.	32eee 32ccc#\	.	.	.
.	32aa 32ee\	.	.	.
.	32eee 32ccc#\	.	.	.
.	32aa 32ee\	.	.	.
.	32eee 32ccc#\	.	16g#/LL	.
.	32aa 32ee\	.	.	.
.	32eee 32ccc#\	.	16f#/JJ)	.
.	32aaJJJ 32ee\)	.	.	.
.	(32eeeLLL 32ccc#\	.	(4.e~/	]
.	32aa 32ee\	.	.	.
.	32eee 32ccc#\	.	.	.
.	32aa 32ee\	.	.	.
.	32eee 32ccc#\	.	.	.
.	32aa 32ee\	.	.	.
.	32eee 32ccc#\	.	.	.
.	32aa 32ee\	.	.	.
.	32eee 32ccc#\	.	.	.
.	32aa 32ee\	.	.	.
.	32eee 32ccc#\	.	.	.
.	32aa 32ee\	.	.	.
.	32eee 32ccc#\	.	8e'/)	f
.	32aa 32ee\	.	.	.
.	32eee 32ccc#\	.	.	.
.	32aaJJJ 32ee\	.	.	.
!!LO:LB:g=original
=46	=46	=46	=46	=46
*tremolo	*	*	*	*
32FFn/LLL	32aaaLLL 32cccn\	f	2.fn/	<
32C/	32aa\	.	.	.
32FF/	32aaa 32ccc\	.	.	.
32C/	32aa\	.	.	.
32FF/	32aaa 32ccc\	.	.	.
32C/	32aa\	.	.	.
32FF/	32aaa 32ccc\	.	.	.
32C/	32aa\	.	.	.
32FF/	32aaa 32ccc\	.	.	.
32C/	32aa\	.	.	.
32FF/	32aaa 32ccc\	.	.	.
32C/	32aa\	.	.	.
32FF/	32aaa 32ccc\	.	.	.
32C/	32aa\	.	.	.
32FF/	32aaa 32ccc\	.	.	.
32Cn/JJJ	32aa\JJJ	.	.	.
32FF/LLL	32aaaLLL 32ccc\	.	.	.
32C/	32aa\	.	.	.
32FF/	32aaa 32ccc\	.	.	.
32C/	32aa\	.	.	.
32FF/	32aaa 32ccc\	.	.	.
32C/	32aa\	.	.	.
32FF/	32aaa 32ccc\	.	.	.
32C/	32aa\	.	.	.
32FF/	32aaa 32ccc\	.	4ccn\	.
32C/	32aa\	.	.	.
32FF/	32aaa 32ccc\	.	.	.
32C/	32aa\	.	.	.
32FF/	32aaa 32ccc\	.	.	.
32C/	32aa\	.	.	.
32FF/	32aaa 32ccc\	.	.	.
32C/JJJ	32aa\JJJ	.	.	.
=47	=47	=47	=47	=47
32FFn/LLL	32fffnLLL 32cccn\	.	(4a/	.
32C/	32aa\	.	.	.
32FF/	32fff 32ccc\	.	.	.
32C/	32aa\	.	.	.
32FF/	32fff 32ccc\	.	.	.
32C/	32aa\	.	.	.
32FF/	32fff 32ccc\	.	.	.
32C/	32aa\JJJ	.	.	.
32FF/	32cccLLL 32aa\	.	4fn/)	.
32C/	32cc\	.	.	.
32FF/	32ccc 32aa\	.	.	.
32C/	32cc\	.	.	.
32FF/	32ccc 32aa\	.	.	.
32C/	32cc\	.	.	.
32FF/	32ccc 32aa\	.	.	.
32Cn/JJJ	32ccn\JJJ	.	.	.
32FF/LLL	32aaLLL 32cc\	.	4cn/	.
32F/	32a\	.	.	.
32FF/	32aa 32cc\	.	.	.
32F/	32a\	.	.	.
32FF/	32aa 32cc\	.	.	.
32F/	32a\	.	.	.
32FF/	32aa 32cc\	.	.	.
32F/	32a\	.	.	.
32FF/	32aa 32cc\	.	4d#X/	[[
32F/	32a\	.	.	.
32FF/	32aa 32cc\	.	.	.
32F/	32a\	.	.	.
32FF/	32aa 32cc\	.	.	.
32F/	32a\	.	.	.
32FF/	32aa 32cc\	.	.	.
32Fn/JJJ	32a\JJJ	.	.	.
=48	=48	=48	=48	=48
32EE/LLL	32aaLLL 32cc#X\	>	1e	>]
32E/	32a\	.	.	.
32EE/	32aa 32cc#\	.	.	.
32E/	32a\	.	.	.
32EE/	32aa 32cc#\	.	.	.
32E/	32a\	.	.	.
32EE/	32aa 32cc#\	.	.	.
32E/	32a\	.	.	.
32EE/	32aa 32cc#\	.	.	.
32E/	32a\	.	.	.
32EE/	32aa 32cc#\	.	.	.
32E/	32a\	.	.	.
32EE/	32aa 32cc#\	.	.	.
32E/	32a\	.	.	.
32EE/	32aa 32cc#\	.	.	.
32E/JJJ	32a\JJJ	.	.	.
32EE/LLL	32aaLLL 32dd\	.	.	.
32E/	32b\	.	.	.
32EE/	32aa 32dd\	.	.	.
32E/	32b\	.	.	.
32EE/	32aa 32dd\	.	.	.
32E/	32b\	.	.	.
32EE/	32aa 32dd\	.	.	.
32E/	32b\JJJ	.	.	.
32EE/	32gg#LLL 32dd\	.	.	.
32E/	32b\	.	.	.
32EE/	32gg# 32dd\	.	.	.
32E/	32b\	.	.	.
32EE/	32gg# 32dd\	.	.	.
32E/	32b\	.	.	.
32EE/	32gg# 32dd\	.	.	.
32E/JJJ	32b\JJJ	.	.	.
*Xtremolo	*Xtremolo	*	*	*
=49	=49	=49	=49	=49
2AA/	2aa 2cc# 2a\)	]	(8A/L	mf <
.	.	.	8G#/	.
.	.	.	8A/	.
.	.	.	8c#/J)	.
!LO:SIC:s=2rE	!	!	!	!
2r	(2cc# 2a\	p	(8f#/L	.
.	.	.	8e#X/	.
.	.	.	8f#/	.
.	.	.	8c#/J)	[[
=50	=50	=50	=50	=50
*	*^	*	*	*
!LO:SIC:s=1rF	!	!	!	!	!
1r	4dd/	2a\	>	(8B/L	>
.	.	.	.	8c#/	.
.	8.cc#/L	.	.	8d/	.
.	.	.	.	8fn/J)	.
.	16b/Jk	.	.	.	.
.	2b/)	2g#\	]	(8e/L	.
.	.	.	.	8c#/	.
.	.	.	.	8e/	]
.	.	.	.	8d/J)	<
=51	=51	=51	=51	=51	=51
!LO:SIC:s=1rF	!	!	!	!	!
1r	(2cc#/	8e#X\L	<	(8c#/L	.
.	.	8f#\	.	8d#X/	.
.	.	8g#\	.	8e#X/	.
.	.	8b\J	.	8c#/J)	.
.	4cc# 4a\	2ryy	.	(8f#/L	.
.	.	.	.	8e#/	.
.	4dd#X 4cc# 4a\	.	.	8f#/	.
.	.	.	[[	8d#/J)	[[
!!LO:LB:g=original
=52	=52	=52	=52	=52	=52
!LO:SIC:s=1rF	!	!	!	!	!
1r	4ee 4cc# 4g#\	4ryy	>	(8g#/L	>
.	.	.	.	8G#/	.
.	8.dd#X/L	4g# 4f#\	.	8A#X/	.
.	.	.	.	8B#X/J)	.
.	16cc#/Jk	.	.	.	.
.	2cc# 2g# 2e/)	2ryy	]]	(8c#/L	.
.	.	.	.	8g#/	.
.	.	.	.	8e/	.
.	.	.	.	8c#/J)	]]
*	*v	*v	*	*	*
=53	=53	=53	=53	=53
!LO:SIC:s=1rF	!	!	!	!
1r	(2cc# 2a\	<	(8A/L	<
.	.	.	8G#/	.
.	.	.	8A/	.
.	.	.	8c#/J)	.
.	2cc# 2a#X\	.	(8f#/L	.
.	.	.	8e#X/	.
.	.	.	8f#/	.
.	.	.	8c#/J)	.
=54	=54	=54	=54	=54
*	*^	*	*	*
!LO:SIC:s=1rF	!	!	!	!	!
1r	2dd#X 2b\	2ryy	.	(8B/L	.
.	.	.	.	8f#/	.
.	.	.	.	8b/)	.
.	.	.	.	([8a/J	.
.	4ee/	2b\	.	8a/L]	.
.	.	.	.	8g#/	.
.	8ff#L 8dd#/	.	.	8f#/	.
.	8gg#J 8ddn/	.	[[	8en/J)	.
*clefG2	*	*	*	*	*
=55	=55	=55	=55	=55	=55
4a/	4aa/)	2cc#\	>	8a/	[
.	.	.	.	4A/	>
4e/	(4.ggn/	.	] <	.	.
.	.	.	.	4A#X/	] <
4d/	.	4dd\	.	.	.
.	8ff#/L	.	.	(8B/L	.
8e/L	8ee 8cc#/	4ryy	.	8c#/	.
8f#/J	8ddJ 8b/	.	[[	8d/J)	[[
*	*v	*v	*	*	*
=56	=56	=56	=56	=56
!LO:TX:a:i:t=rall.	!	!	!LO:TX:a:i:t=rall.	!
2e/	(2cc# 2a\)	>	(8e/L	>
.	.	.	8d#X/	.
.	.	.	8f#/	.
.	.	.	8e/J)	.
*clefF4	*	*	*	*
8dL 8E\	8a#XL 8e/	] p	(4.G#/	] p <
8d 8E\	8b 8e/	<	.	.
8d 8E\	8ee 8e/	.	.	.
!LO:TX:b:i:t=attaca subito il Rondo:mod=	!	!	!	!
8BJ 8E\	8g#J 8e/	[[	8dn/)	[[
=57	=57	=57	=57	=57
4A 4E 4AA\	4an 4e/)	>	4c#/	>
4r	4r	]	4r	]
4A 4E 4AA\	4e 4c#/	pp	4A/	pp
4r	4r	.	4r	.
*	*clefF4	*	*	*
=58	=58	=58	=58	=58
2.AA 2.AAA/	2.c# 2.A 2.E 2.C#\	ppp	2.A/	ppp
4r	4r	.	4r	.
*	*clefG2	*	*	*
!!LO:TX:a:rj:i:t=attaca subito il Rondo
==	==	==	==	==
*-	*-	*-	*-	*-
!!!system-decoration: s1{(s2,s3)}
!!!RDF**kern: > = above
!!!RDF**kern: < = below
!!!filter-modern: sic -sq | shed -e "s/:rj/:RJ/L"  | shed -e "s/LO:DY:(a|b|rj)/LO:dy:$1/L" | autostem -r | tie -s  | modori -m
!!!ENC: Andrzej Kubiczek
!!!END: 2022-05-14
!!!ENC: Andrzej Kubiczek
!!!END: 2022-05-14
!!!ENC-modern: Andrzej Borzym
!!!END-modern: 2022-07-20
